src/assets/duotone/Reserve.svg

<svg width="24" height="24" viewBox="0 0 24 24"  xmlns="http://www.w3.org/2000/svg">
<path d="M21.9702 18V19C21.9702 20.65 21.9702 22 18.9702 22H4.97021C1.97021 22 1.97021 20.65 1.97021 19V18C1.97021 17.45 2.42021 17 2.97021 17H20.9702C21.5202 17 21.9702 17.45 21.9702 18Z" />
<path opacity="0.4" d="M20.72 13V17H3.27002V13C3.27002 9.16 5.98002 5.95 9.59002 5.18C10.13 5.06 10.69 5 11.27 5H12.72C13.3 5 13.87 5.06 14.41 5.18C18.02 5.96 20.72 9.16 20.72 13Z" />
<path d="M14.5 4.5C14.5 4.74 14.47 4.96 14.41 5.18C13.87 5.06 13.3 5 12.72 5H11.27C10.69 5 10.13 5.06 9.59 5.18C9.53 4.96 9.5 4.74 9.5 4.5C9.5 3.12 10.62 2 12 2C13.38 2 14.5 3.12 14.5 4.5Z" />
<path d="M15 11.75H9C8.59 11.75 8.25 11.41 8.25 11C8.25 10.59 8.59 10.25 9 10.25H15C15.41 10.25 15.75 10.59 15.75 11C15.75 11.41 15.41 11.75 15 11.75Z" />
</svg>

<?xml version="1.0" encoding="UTF-8"?>
<svg width="24" height="24" viewBox="0 0 24 24" xmlns="http://www.w3.org/2000/svg">
 <path d="m21.97 18v1c0 1.65 0 3-3 3h-14c-3 0-3-1.35-3-3v-1c0-0.55 0.45-1 1-1h18c0.55 0 1 0.45 1 1z"/>
 <path d="m20.72 13v4h-17.45v-4c0-3.84 2.71-7.05 6.32-7.82 0.53998-0.12 1.1-0.18 1.68-0.18h1.45c0.58 0 1.15 0.06 1.69 0.18 3.61 0.78 6.31 3.98 6.31 7.82z" opacity=".4"/>
 <path d="m14.5 4.5c0 0.24-0.03 0.46-0.09 0.68-0.54-0.12-1.11-0.18-1.69-0.18h-1.45c-0.58 0-1.14 0.06-1.68 0.18-0.06-0.22-0.09-0.44-0.09-0.68 0-1.38 1.12-2.5 2.5-2.5s2.5 1.12 2.5 2.5z"/>
 <path d="m15 11.75h-6c-0.41 0-0.75-0.34-0.75-0.75s0.34-0.75 0.75-0.75h6c0.41 0 0.75 0.34 0.75 0.75s-0.34 0.75-0.75 0.75z"/>
</svg>
